src/assets/images/case_diary.svg

<svg width="24" height="24" viewBox="0 0 24 24" fill="none" xmlns="http://www.w3.org/2000/svg">
<path fill-rule="evenodd" clip-rule="evenodd" d="M21.5239 9.75272C20.8848 5.81932 17.5438 2.89308 13.5605 2.77789C13.3711 2.77047 13.1865 2.83866 13.0475 2.96743C12.9084 3.0962 12.8262 3.27499 12.8191 3.46439V3.46439V3.52846L13.2676 10.2378C13.297 10.6895 13.6853 11.0328 14.1372 11.0067L20.8649 10.5582C21.0544 10.5442 21.2306 10.4552 21.3543 10.3108C21.478 10.1665 21.539 9.97882 21.5239 9.78933V9.75272Z" stroke="black" stroke-opacity="0.6" stroke-width="1.5" stroke-linecap="round" stroke-linejoin="round"/>
<path d="M8.90151 6.76877C9.32947 6.66978 9.76741 6.88875 9.94499 7.29051C9.9915 7.385 10.0195 7.48754 10.0274 7.59257C10.1189 8.89234 10.3111 11.739 10.421 13.2768C10.4397 13.5538 10.5681 13.8119 10.7777 13.994C10.9872 14.1761 11.2608 14.2671 11.5377 14.247V14.247L17.1853 13.8992C17.4374 13.884 17.6846 13.9738 17.8683 14.1471C18.052 14.3204 18.156 14.562 18.1555 14.8145V14.8145C17.9266 18.2249 15.4764 21.0759 12.1392 21.815C8.80201 22.554 5.37718 21.0039 3.72988 18.009C3.23813 17.1471 2.92672 16.1941 2.81455 15.2081C2.7666 14.9055 2.74821 14.599 2.75963 14.2928C2.76935 10.6508 5.32714 7.51273 8.89236 6.76877" stroke="black" stroke-opacity="0.6" stroke-width="1.5" stroke-linecap="round" stroke-linejoin="round"/>
</svg>

<svg width="24" height="24" viewBox="0 0 24 24" fill="none" xmlns="http://www.w3.org/2000/svg">
    <path clip-rule="evenodd" d="M21.525 9.753a8.311 8.311 0 0 0-7.963-6.975.714.714 0 0 0-.742.686v.064l.449 6.71c.03.452.418.795.87.769l6.727-.449a.714.714 0 0 0 .66-.769v-.036z" stroke="#2E5BFF" stroke-width="1.5" stroke-linecap="round" stroke-linejoin="round"/>
    <path d="M8.903 6.769a.915.915 0 0 1 1.043.522.824.824 0 0 1 .083.302c.091 1.3.284 4.146.393 5.684a1.044 1.044 0 0 0 1.117.97v0l5.648-.348a.915.915 0 0 1 .97.916v0a7.698 7.698 0 0 1-14.426 3.194 7.322 7.322 0 0 1-.915-2.8 4.722 4.722 0 0 1-.055-.916 7.707 7.707 0 0 1 6.133-7.524" stroke="#2E5BFF" stroke-width="1.5" stroke-linecap="round" stroke-linejoin="round"/>
</svg>
